X: 1
T: The Cuil Aodha
R: polka
M: 2/4
L: 1/8
K: Amaj
Ac EF|A>A Af|ec BA|e/f/e/c/ Bc/B/|
Ac EF|A>A Af|ec BA/B/|1 cA AE:|2 cA AB||
|:ce ce|a2 af|ec BA|e/f/e/c/ BA|ce ce|
a2 af|ec BA/B/|1 cA AB:|2 cA AE||


Tune 1535	Setting 14938

